src/assets/img/dashboard/transak.svg

<svg fill="none" height="40" viewBox="0 0 40 40" width="40" xmlns="http://www.w3.org/2000/svg" xmlns:xlink="http://www.w3.org/1999/xlink"><linearGradient id="a" gradientUnits="userSpaceOnUse" x1="7.8378" x2="32.1623" y1="7.83756" y2="32.1621"><stop offset=".0120873" stop-color="#3291f6"/><stop offset=".5078" stop-color="#1f74eb"/></linearGradient><linearGradient id="b" gradientUnits="userSpaceOnUse" x1="20" x2="32.1625" y1="19.9999" y2="32.1624"><stop offset=".0223464" stop-color="#3485ef"/><stop offset=".9628" stop-color="#1461e5"/></linearGradient><path d="m20.0001 37.1998c9.4993 0 17.2-7.7007 17.2-17.2s-7.7007-17.2-17.2-17.2-17.20005 7.7007-17.20005 17.2 7.70075 17.2 17.20005 17.2z" fill="url(#a)"/><path d="m32.1625 7.8374c6.7151 6.7151 6.7151 17.6099 0 24.325-6.715 6.7151-17.6099 6.7151-24.32498 0z" fill="url(#b)"/><path d="m15.6947 22.8131 7.6952-8.0015c.589-.589 1.508-.5466 2.1206.066l4.4484 4.2882c.4712.4524.4618 1.3524.0236 1.8378-.5702.5702-1.2111.6126-2.0829.0189l-3.2232-3.4919-8.1052 7.7141c-.542.4194-1.098.7728-1.9509.2309-.2922-.3958.2874-1.1639.0612-1.3948z" fill="#d1d9e6"/><path d="m15.3412 25.4993c-.6597-.0188-1.1734-.4524-1.1734-.9613l.0377-9.1466c0-.5043.476-1.1216 1.131-1.1404.8765 0 1.2582.7068 1.2582 1.2346v9.0807c.0047.523-.5608.9519-1.2535.933z" fill="#d1d9e6"/><path d="m24.323 25.749c-.8152 0-1.1545-.6032-1.1545-1.0839v-8.3879c0-.476.5042-1.0509 1.1545-1.0697.6833-.0189 1.2488.5513 1.2488 1.0461v8.2984c-.0047.5844-.41 1.197-1.2488 1.197z" fill="#d1d9e6"/><g fill="#fff"><path d="m15.0679 25.598c-.5042-.0188-.9001-.4524-.9001-.9613v-9.1419c0-.5042.3959-1.1215.9001-1.1404.5278-.0188.966.589.966 1.1168v9.1985c0 .5231-.4382.9519-.966.9283z"/><path d="m24.0638 25.6923c-.5136 0-.9377-.5985-.9377-1.1169v-9.0146c0-.5137.4194-.9378.9377-.9378.5184 0 .9378.4194.9378.9378v9.0146c-.0047.5137-.4194 1.1169-.9378 1.1169z"/><path d="m15.1056 25.5089c-.3063 0-.6126-.1178-.8388-.3534l-4.2411-4.2505c-.46181-.4665-.46181-1.2111.0047-1.6776.4665-.4618 1.2111-.4618 1.6776.0047l3.4164 3.4353 8.1665-7.7753c.4618-.4383 1.1781-.4383 1.6399.0047l4.4437 4.2882c.4713.4524.4807 1.2063.033 1.6776-.4524.4759-1.2063.4806-1.6776.033l-3.6332-3.5013-8.1806 7.7895c-.2215.2168-.5183.3251-.8105.3251z"/><path d="m23.2486 18.8831-.5183.49s.1461-.8152-.2734-.4194c-.4194.4006.6457-1.0084.6457-1.0084l.2167.2733z"/><path d="m24.9969 18.7607s.0282-.4995.5702.3534v-.6691l-.5891-.3063z"/><path d="m16.0387 21.1217s.0801.556.5655-.1603v.6692l-.5891.3063z"/></g></svg>

<svg width="40" height="40" viewBox="0 0 40 40" fill="none" xmlns="http://www.w3.org/2000/svg">
<path d="M20.0001 37.1998C29.4994 37.1998 37.2001 29.4991 37.2001 19.9998C37.2001 10.5005 29.4994 2.7998 20.0001 2.7998C10.5008 2.7998 2.80005 10.5005 2.80005 19.9998C2.80005 29.4991 10.5008 37.1998 20.0001 37.1998Z" fill="url(#paint0_linear_113_21476)"/>
<path d="M32.1625 7.8374C38.8776 14.5525 38.8776 25.4473 32.1625 32.1624C25.4475 38.8775 14.5526 38.8775 7.83752 32.1624L32.1625 7.8374Z" fill="url(#paint1_linear_113_21476)"/>
<path d="M15.6947 22.8131L23.3899 14.8116C23.9789 14.2226 24.8979 14.265 25.5105 14.8776L29.9589 19.1658C30.4301 19.6182 30.4207 20.5182 29.9825 21.0036C29.4123 21.5738 28.7714 21.6162 27.8996 21.0225L24.6764 17.5306L16.5712 25.2447C16.0292 25.6641 15.4732 26.0175 14.6203 25.4756C14.3281 25.0798 14.9077 24.3117 14.6815 24.0808L15.6947 22.8131Z" fill="#D1D9E6"/>
<path d="M15.3412 25.4993C14.6815 25.4805 14.1678 25.0469 14.1678 24.538L14.2055 15.3914C14.2055 14.8871 14.6815 14.2698 15.3365 14.251C16.213 14.251 16.5947 14.9578 16.5947 15.4856V24.5663C16.5994 25.0893 16.0339 25.5182 15.3412 25.4993Z" fill="#D1D9E6"/>
<path d="M24.323 25.749C23.5078 25.749 23.1685 25.1458 23.1685 24.6651V16.2772C23.1685 15.8012 23.6727 15.2263 24.323 15.2075C25.0063 15.1886 25.5718 15.7588 25.5718 16.2536V24.552C25.5671 25.1364 25.1618 25.749 24.323 25.749Z" fill="#D1D9E6"/>
<path d="M15.0679 25.598C14.5637 25.5792 14.1678 25.1456 14.1678 24.6367V15.4948C14.1678 14.9906 14.5637 14.3733 15.0679 14.3544C15.5957 14.3356 16.0339 14.9434 16.0339 15.4712V24.6697C16.0339 25.1928 15.5957 25.6216 15.0679 25.598Z" fill="white"/>
<path d="M24.0638 25.6923C23.5502 25.6923 23.1261 25.0938 23.1261 24.5754V15.5608C23.1261 15.0471 23.5455 14.623 24.0638 14.623C24.5822 14.623 25.0016 15.0424 25.0016 15.5608V24.5754C24.9969 25.0891 24.5822 25.6923 24.0638 25.6923Z" fill="white"/>
<path d="M15.1056 25.5089C14.7993 25.5089 14.493 25.3911 14.2668 25.1555L10.0257 20.905C9.56389 20.4385 9.56389 19.6939 10.0304 19.2274C10.4969 18.7656 11.2415 18.7656 11.708 19.2321L15.1244 22.6674L23.2909 14.8921C23.7527 14.4538 24.469 14.4538 24.9308 14.8968L29.3745 19.185C29.8458 19.6374 29.8552 20.3913 29.4075 20.8626C28.9551 21.3385 28.2012 21.3432 27.7299 20.8956L24.0967 17.3943L15.9161 25.1838C15.6946 25.4006 15.3978 25.5089 15.1056 25.5089Z" fill="white"/>
<path d="M23.2486 18.8831L22.7303 19.3731C22.7303 19.3731 22.8764 18.5579 22.4569 18.9537C22.0375 19.3543 23.1026 17.9453 23.1026 17.9453L23.3193 18.2186L23.2486 18.8831Z" fill="white"/>
<path d="M24.9969 18.7607C24.9969 18.7607 25.0251 18.2612 25.5671 19.1141V18.445L24.978 18.1387L24.9969 18.7607Z" fill="white"/>
<path d="M16.0387 21.1217C16.0387 21.1217 16.1188 21.6777 16.6042 20.9614V21.6306L16.0151 21.9369L16.0387 21.1217Z" fill="white"/>
<defs>
<linearGradient id="paint0_linear_113_21476" x1="7.8378" y1="7.83756" x2="32.1623" y2="32.1621" gradientUnits="userSpaceOnUse">
<stop offset="0.0120873" stop-color="#3291F6"/>
<stop offset="0.5078" stop-color="#1F74EB"/>
</linearGradient>
<linearGradient id="paint1_linear_113_21476" x1="20" y1="19.9999" x2="32.1625" y2="32.1624" gradientUnits="userSpaceOnUse">
<stop offset="0.0223464" stop-color="#3485EF"/>
<stop offset="0.9628" stop-color="#1461E5"/>
</linearGradient>
</defs>
</svg>
